X: 673
T: After The Battle Of Aughrim
R: march
M: 
K: Adorian
M:4/4
|:E2A2 A2Bd|e2dB c2cA|B2G2 GFGA|BGAG E2D2|
E2A2 A2Bd|e2dg gaag|e2ed BedB|1 A4 A2AG:|2 A4 A2 e/f/g||
|:a2ag eefg|abag eeeg|a2e2 fgge|dedB G2 e/f/g|
a2ag eefg|abag e2ed|B2e2 d2B2|1 A4 A2 e/f/g:|2 A4 A2AG||

